;FLAVOR:Marlin
;TIME:12290
;Filament used: 12.8044m
;Layer height: 0.28
;MINX:84.7
;MINY:84.147
;MINZ:0.28
;MAXX:150.3
;MAXY:150.364
;MAXZ:50.04
;Generated with Cura_SteamEngine 4.9.1
M140 S50
M105
M190 S50
M104 S200
M105
M109 S200
M82 ;absolute extrusion mode
; Ender 3 Custom Start G-code
G92 E0 ; Reset Extruder
G28 ; Home all axes
G1 Z2.0 F3000 ; Move Z Axis up little to prevent scratching of Heat Bed
G1 X0.1 Y20 Z0.3 F5000.0 ; Move to start position
G1 X0.1 Y200.0 Z0.3 F1500.0 E15 ; Draw the first line
G1 X0.4 Y200.0 Z0.3 F5000.0 ; Move to side a little
G1 X0.4 Y20 Z0.3 F1500.0 E30 ; Draw the second line
G92 E0 ; Reset Extruder
G1 Z2.0 F3000 ; Move Z Axis up little to prevent scratching of Heat Bed
G1 X5 Y20 Z0.3 F5000.0 ; Move over to prevent blob squish
G92 E0
G92 E0
G1 F2700 E-5
;LAYER_COUNT:178
;LAYER:0
M107
G1 F300 Z0.48
G0 F6000 X87.123 Y86.296 Z0.48
;TYPE:SKIRT
G1 F300 Z0.28
G1 F2700 E0
G1 F1200 X87.722 Y85.781 E0.03678
G1 X88.37 Y85.33 E0.07355
G1 X89.061 Y84.946 E0.11036
G1 X89.786 Y84.634 E0.14711
G1 X90.539 Y84.397 E0.18387
G1 X91.313 Y84.238 E0.22066
G1 X92.098 Y84.157 E0.25741
G1 X92.5 Y84.147 E0.27613
G1 X142.5 Y84.148 E2.60434
G1 X143.289 Y84.188 E2.64113
G1 X144.069 Y84.308 E2.67788
G1 X144.834 Y84.505 E2.71466
G1 X145.574 Y84.779 E2.7514
G1 X146.284 Y85.127 E2.78822
G1 X146.954 Y85.545 E2.82499
G1 X147.578 Y86.028 E2.86174
G1 X148.151 Y86.572 E2.89853
G1 X148.666 Y87.171 E2.93531
G1 X149.117 Y87.818 E2.97203
G1 X149.501 Y88.509 E3.00884
G1 X149.813 Y89.234 E3.0456
G1 X150.05 Y89.987 E3.08236
G1 X150.209 Y90.761 E3.11915
G1 X150.29 Y91.546 E3.1559
G1 X150.3 Y91.948 E3.17462
G1 X150.3 Y142.139 E5.51172
G1 X150.26 Y142.928 E5.54851
G1 X150.141 Y143.708 E5.58525
G1 X149.943 Y144.473 E5.62205
G1 X149.669 Y145.213 E5.65879
G1 X149.321 Y145.922 E5.69557
G1 X148.903 Y146.593 E5.73238
G1 X148.42 Y147.217 E5.76912
G1 X147.877 Y147.79 E5.80588
G1 X147.278 Y148.305 E5.84266
G1 X146.63 Y148.756 E5.87942
G1 X145.939 Y149.14 E5.91623
G1 X145.214 Y149.452 E5.95299
G1 X144.461 Y149.689 E5.98975
G1 X143.687 Y149.848 E6.02654
G1 X142.902 Y149.929 E6.06329
G1 X142.5 Y149.939 E6.08201
G1 X92.5 Y149.939 E8.41022
G1 X91.711 Y149.899 E8.44701
G1 X90.931 Y149.78 E8.48375
G1 X90.166 Y149.582 E8.52054
G1 X89.426 Y149.308 E8.55729
G1 X88.717 Y148.96 E8.59406
G1 X88.046 Y148.542 E8.63087
G1 X87.422 Y148.059 E8.66762
G1 X86.849 Y147.516 E8.70438
G1 X86.334 Y146.917 E8.74116
G1 X85.883 Y146.269 E8.77792
G1 X85.499 Y145.578 E8.81473
G1 X85.187 Y144.853 E8.85148
G1 X84.95 Y144.1 E8.88824
G1 X84.791 Y143.326 E8.92504
G1 X84.71 Y142.541 E8.96178
G1 X84.7 Y142.139 E8.98051
G1 X84.7 Y91.947 E11.31766
G1 X84.74 Y91.158 E11.35444
G1 X84.859 Y90.378 E11.39118
G1 X85.057 Y89.613 E11.42798
G1 X85.331 Y88.873 E11.46472
G1 X85.679 Y88.164 E11.5015
G1 X86.097 Y87.493 E11.53831
G1 X86.58 Y86.869 E11.57505
G1 X87.123 Y86.296 E11.61181
G0 F6000 X87.516 Y86.477
G1 F1200 X88.111 Y85.989 E11.64764
G1 X88.753 Y85.566 E11.68344
G1 X89.436 Y85.211 E11.71929
G1 X90.151 Y84.93 E11.75506
G1 X90.893 Y84.724 E11.79092
G1 X91.651 Y84.596 E11.82671
G1 X92.5 Y84.547 E11.86631
G1 X142.5 Y84.548 E14.19452
G1 X143.268 Y84.588 E14.23033
G1 X144.028 Y84.707 E14.26615
G1 X144.771 Y84.905 E14.30195
G1 X145.49 Y85.179 E14.33778
G1 X146.177 Y85.526 E14.37362
G1 X146.823 Y85.942 E14.4094
G1 X147.423 Y86.423 E14.44521
G1 X147.97 Y86.964 E14.48103
G1 X148.458 Y87.559 E14.51686
G1 X148.881 Y88.201 E14.55266
G1 X149.236 Y88.884 E14.58851
G1 X149.517 Y89.6 E14.62432
G1 X149.723 Y90.341 E14.66013
G1 X149.851 Y91.099 E14.69593
G1 X149.9 Y91.948 E14.73553
G1 X149.9 Y142.139 E17.07263
G1 X149.86 Y142.907 E17.10844
G1 X149.741 Y143.667 E17.14426
G1 X149.543 Y144.41 E17.18007
G1 X149.269 Y145.129 E17.21589
G1 X148.922 Y145.815 E17.25169
G1 X148.506 Y146.462 E17.28751
G1 X148.025 Y147.062 E17.32332
G1 X147.484 Y147.609 E17.35914
G1 X146.889 Y148.097 E17.39497
G1 X146.247 Y148.52 E17.43077
G1 X145.564 Y148.875 E17.46662
G1 X144.849 Y149.156 E17.50239
G1 X144.107 Y149.362 E17.53824
G1 X143.349 Y149.49 E17.57404
G1 X142.5 Y149.539 E17.61364
G1 X92.5 Y149.539 E19.94185
G1 X91.732 Y149.499 E19.97766
G1 X90.972 Y149.38 E20.01348
G1 X90.229 Y149.182 E20.04928
G1 X89.51 Y148.908 E20.08511
G1 X88.824 Y148.561 E20.12091
G1 X88.177 Y148.145 E20.15673
G1 X87.577 Y147.664 E20.19253
G1 X87.03 Y147.123 E20.22836
G1 X86.542 Y146.528 E20.26419
G1 X86.119 Y145.886 E20.29999
G1 X85.764 Y145.203 E20.33583
G1 X85.483 Y144.488 E20.3716
G1 X85.277 Y143.746 E20.40746
G1 X85.149 Y142.988 E20.44326
G1 X85.1 Y142.139 E20.48286
G1 X85.1 Y91.947 E22.82001
G1 X85.14 Y91.179 E22.85582
G1 X85.259 Y90.419 E22.89164
G1 X85.457 Y89.676 E22.92744
G1 X85.731 Y88.957 E22.96327
G1 X86.078 Y88.271 E22.99907
G1 X86.494 Y87.624 E23.03488
G1 X86.975 Y87.024 E23.07069
G1 X87.516 Y86.477 E23.10651
G0 F6000 X87.908 Y86.663
G1 F1200 X88.498 Y86.204 E23.14132
G1 X89.134 Y85.809 E23.17618
G1 X89.808 Y85.485 E23.21101
G1 X90.513 Y85.235 E23.24584
G1 X91.241 Y85.061 E23.28069
G1 X91.983 Y84.966 E23.31552
G1 X92.5 Y84.947 E23.33961
G1 X142.5 Y84.948 E25.66782
G1 X143.247 Y84.988 E25.70265
G1 X143.986 Y85.107 E25.73751
G1 X144.707 Y85.305 E25.77232
G1 X145.403 Y85.579 E25.80715
G1 X146.067 Y85.925 E25.84202
G1 X146.689 Y86.34 E25.87684
G1 X147.263 Y86.819 E25.91165
G1 X147.784 Y87.356 E25.94649
G1 X148.243 Y87.946 E25.9813
G1 X148.638 Y88.582 E26.01616
G1 X148.962 Y89.256 E26.05098
G1 X149.212 Y89.961 E26.08581
G1 X149.386 Y90.689 E26.12066
G1 X149.481 Y91.431 E26.1555
G1 X149.5 Y91.948 E26.17959
G1 X149.5 Y142.139 E28.51669
G1 X149.46 Y142.886 E28.55152
G1 X149.341 Y143.624 E28.58633
G1 X149.143 Y144.346 E28.62119
G1 X148.87 Y145.042 E28.656
G1 X148.523 Y145.705 E28.69085
G1 X148.108 Y146.328 E28.72571
G1 X147.629 Y146.902 E28.76052
G1 X147.092 Y147.423 E28.79536
G1 X146.502 Y147.882 E28.83016
G1 X145.866 Y148.277 E28.86503
G1 X145.192 Y148.601 E28.89985
G1 X144.487 Y148.851 E28.93468
G1 X143.759 Y149.025 E28.96953
G1 X143.017 Y149.12 E29.00436
G1 X142.5 Y149.139 E29.02845
G1 X92.5 Y149.139 E31.35666
G1 X91.753 Y149.099 E31.3915
G1 X91.015 Y148.98 E31.42631
G1 X90.293 Y148.782 E31.46117
G1 X89.597 Y148.509 E31.49598
G1 X88.934 Y148.162 E31.53082
G1 X88.311 Y147.747 E31.56568
G1 X87.737 Y147.268 E31.60049
G1 X87.216 Y146.731 E31.63533
G1 X86.757 Y146.141 E31.67014
G1 X86.362 Y145.505 E31.705
G1 X86.038 Y144.831 E31.73982
G1 X85.788 Y144.126 E31.77465
G1 X85.614 Y143.398 E31.80951
G1 X85.519 Y142.656 E31.84434
G1 X85.5 Y142.139 E31.86843
G1 X85.5 Y91.947 E34.20558
G1 X85.54 Y91.2 E34.24041
G1 X85.659 Y90.462 E34.27522
G1 X85.857 Y89.74 E34.31008
G1 X86.13 Y89.044 E34.34489
G1 X86.477 Y88.381 E34.37974
G1 X86.892 Y87.758 E34.4146
G1 X87.371 Y87.184 E34.44941
G1 X87.908 Y86.663 E34.48425
G0 F6000 X87.765 Y87.349
G1 F1200 X88.299 Y86.856 E34.51809
G1 X88.884 Y86.426 E34.5519
G1 X89.513 Y86.062 E34.58574
G1 X90.178 Y85.769 E34.61957
G1 X90.871 Y85.551 E34.6534
G1 X91.583 Y85.411 E34.68719
G1 X92.5 Y85.347 E34.72999
G1 X142.5 Y85.348 E37.0582
G1 X143.225 Y85.388 E37.09201
G1 X143.942 Y85.507 E37.12586
G1 X144.641 Y85.705 E37.15968
G1 X145.314 Y85.978 E37.1935
G1 X145.953 Y86.323 E37.22732
G1 X146.55 Y86.737 E37.26115
G1 X147.098 Y87.213 E37.29494
G1 X147.591 Y87.747 E37.32879
G1 X148.021 Y88.332 E37.36259
G1 X148.385 Y88.961 E37.39643
G1 X148.678 Y89.626 E37.43027
G1 X148.896 Y90.319 E37.4641
G1 X149.036 Y91.031 E37.49789
G1 X149.1 Y91.948 E37.54069
G1 X149.1 Y142.139 E39.87779
G1 X149.06 Y142.864 E39.9116
G1 X148.941 Y143.581 E39.94545
G1 X148.743 Y144.28 E39.97928
G1 X148.47 Y144.953 E40.01309
G1 X148.125 Y145.592 E40.04691
G1 X147.711 Y146.189 E40.08074
G1 X147.235 Y146.737 E40.11454
G1 X146.701 Y147.23 E40.14838
G1 X146.116 Y147.66 E40.18219
G1 X145.487 Y148.024 E40.21603
G1 X144.822 Y148.317 E40.24986
G1 X144.129 Y148.535 E40.28369
G1 X143.417 Y148.675 E40.31748
G1 X142.5 Y148.739 E40.36028
G1 X92.5 Y148.739 E42.68849
G1 X91.775 Y148.699 E42.7223
G1 X91.058 Y148.58 E42.75615
G1 X90.359 Y148.382 E42.78997
G1 X89.686 Y148.109 E42.82379
G1 X89.047 Y147.764 E42.85761
G1 X88.45 Y147.35 E42.89144
G1 X87.902 Y146.874 E42.92524
G1 X87.409 Y146.34 E42.95908
G1 X86.979 Y145.755 E42.99288
G1 X86.615 Y145.126 E43.02672
G1 X86.322 Y144.461 E43.06056
G1 X86.104 Y143.768 E43.09439
G1 X85.964 Y143.056 E43.12818
G1 X85.9 Y142.139 E43.17098
G1 X85.9 Y91.947 E45.50813
G1 X85.94 Y91.222 E45.54194
G1 X86.059 Y90.505 E45.57578
G1 X86.257 Y89.806 E45.60961
G1 X86.53 Y89.133 E45.64343
G1 X86.875 Y88.494 E45.67725
G1 X87.289 Y87.897 E45.71107
G1 X87.765 Y87.349 E45.74487
G0 F6000 X88.159 Y87.52
G1 F1200 X88.689 Y87.056 E45.77767
G1 X89.268 Y86.656 E45.81044
G1 X89.889 Y86.324 E45.84323
G1 X90.543 Y86.064 E45.876
G1 X91.223 Y85.88 E45.90881
G1 X91.919 Y85.774 E45.94159
G1 X92.5 Y85.747 E45.96867
G1 X142.5 Y85.748 E48.29688
G1 X143.203 Y85.788 E48.32967
G1 X143.897 Y85.907 E48.36246
G1 X144.573 Y86.105 E48.39526
G1 X145.222 Y86.377 E48.42802
G1 X145.836 Y86.722 E48.46082
G1 X146.407 Y87.134 E48.4936
G1 X146.927 Y87.607 E48.52634
G1 X147.391 Y88.137 E48.55914
G1 X147.791 Y88.716 E48.5919
G1 X148.123 Y89.337 E48.62469
G1 X148.383 Y89.991 E48.65747
G1 X148.567 Y90.671 E48.69027
G1 X148.673 Y91.367 E48.72305
G1 X148.7 Y91.948 E48.75013
G1 X148.7 Y142.139 E51.08724
G1 X148.66 Y142.842 E51.12002
G1 X148.541 Y143.536 E51.15281
G1 X148.343 Y144.211 E51.18557
G1 X148.071 Y144.86 E51.21833
G1 X147.726 Y145.474 E51.25113
G1 X147.315 Y146.045 E51.28389
G1 X146.841 Y146.566 E51.31669
G1 X146.311 Y147.03 E51.34949
G1 X145.732 Y147.43 E51.38225
G1 X145.111 Y147.762 E51.41504
G1 X144.457 Y148.022 E51.44781
G1 X143.777 Y148.206 E51.48062
G1 X143.081 Y148.312 E51.5134
G1 X142.5 Y148.339 E51.54048
G1 X92.5 Y148.339 E53.86869
G1 X91.797 Y148.299 E53.90148
G1 X91.103 Y148.18 E53.93427
G1 X90.428 Y147.982 E53.96702
G1 X89.779 Y147.71 E53.99979
G1 X89.165 Y147.365 E54.03258
G1 X88.594 Y146.954 E54.06534
G1 X88.073 Y146.48 E54.09814
G1 X87.609 Y145.95 E54.13094
G1 X87.209 Y145.371 E54.16371
G1 X86.877 Y144.75 E54.1965
G1 X86.617 Y144.096 E54.22927
G1 X86.433 Y143.416 E54.26207
G1 X86.327 Y142.72 E54.29486
G1 X86.3 Y142.139 E54.32194
G1 X86.3 Y91.947 E56.65909
G1 X86.34 Y91.244 E56.69188
G1 X86.459 Y90.55 E56.72466
G1 X86.657 Y89.875 E56.75742
G1 X86.929 Y89.226 E56.79018
G1 X87.274 Y88.612 E56.82298
G1 X87.685 Y88.041 E56.85574
G1 X88.159 Y87.52 E56.88854
G0 F6000 X88.553 Y87.698
G1 F1200 X89.078 Y87.264 E56.92025
G1 X89.65 Y86.895 E56.95195
G1 X90.262 Y86.596 E56.98367
G1 X90.904 Y86.371 E57.01534
G1 X91.569 Y86.222 E57.04708
G1 X92.5 Y86.147 E57.09057
G1 X142.5 Y86.148 E59.41878
G1 X143.18 Y86.188 E59.4505
G1 X143.85 Y86.307 E59.48218
G1 X144.502 Y86.504 E59.5139
G1 X145.126 Y86.777 E59.54561
G1 X145.714 Y87.12 E59.57731
G1 X146.258 Y87.53 E59.60903
G1 X146.75 Y88.001 E59.64075
G1 X147.183 Y88.526 E59.67243
G1 X147.552 Y89.098 E59.70413
G1 X147.851 Y89.71 E59.73585
G1 X148.076 Y90.352 E59.76752
G1 X148.225 Y91.017 E59.79926
G1 X148.3 Y91.948 E59.84275
G1 X148.3 Y142.139 E62.17985
G1 X148.26 Y142.819 E62.21157
G1 X148.141 Y143.489 E62.24326
G1 X147.944 Y144.141 E62.27497
G1 X147.672 Y144.765 E62.30667
G1 X147.328 Y145.353 E62.33839
G1 X146.918 Y145.897 E62.37011
G1 X146.447 Y146.388 E62.40179
G1 X145.922 Y146.822 E62.43351
G1 X145.35 Y147.191 E62.4652
G1 X144.738 Y147.49 E62.49692
G1 X144.096 Y147.715 E62.5286
G1 X143.431 Y147.864 E62.56033
G1 X142.5 Y147.939 E62.60382
G1 X92.5 Y147.939 E64.93203
G1 X91.82 Y147.899 E64.96375
G1 X91.15 Y147.78 E64.99544
G1 X90.498 Y147.583 E65.02715
G1 X89.874 Y147.311 E65.05885
G1 X89.286 Y146.967 E65.09057
G1 X88.742 Y146.557 E65.12229
G1 X88.251 Y146.086 E65.15397
G1 X87.817 Y145.561 E65.18569
G1 X87.448 Y144.989 E65.21738
G1 X87.149 Y144.377 E65.2491
G1 X86.924 Y143.735 E65.28078
G1 X86.775 Y143.07 E65.31251
G1 X86.7 Y142.139 E65.356
G1 X86.7 Y91.947 E67.69315
G1 X86.74 Y91.267 E67.72487
G1 X86.859 Y90.597 E67.75656
G1 X87.056 Y89.945 E67.78827
G1 X87.328 Y89.321 E67.81997
G1 X87.672 Y88.733 E67.85169
G1 X88.082 Y88.189 E67.88341
G1 X88.553 Y87.698 E67.91509
G0 F6000 X88.945 Y87.882
G1 F1200 X89.465 Y87.481 E67.94567
G1 X90.029 Y87.145 E67.97624
G1 X90.631 Y86.881 E68.00685
G1 X91.26 Y86.691 E68.03744
G1 X91.907 Y86.58 E68.06801
G1 X92.5 Y86.547 E68.09566
G1 X142.5 Y86.548 E70.42387
G1 X143.156 Y86.588 E70.45448
G1 X143.802 Y86.707 E70.48506
G1 X144.429 Y86.904 E70.51567
G1 X145.027 Y87.176 E70.54626
G1 X145.588 Y87.518 E70.57685
G1 X146.103 Y87.926 E70.60744
G1 X146.565 Y88.393 E70.63803
G1 X146.966 Y88.913 E70.66861
G1 X147.302 Y89.478 E70.69922
G1 X147.566 Y90.079 E70.72978
G1 X147.756 Y90.708 E70.76038
G1 X147.867 Y91.355 E70.79095
G1 X147.9 Y91.948 E70.8186
G1 X147.9 Y142.139 E73.15571
G1 X147.86 Y142.795 E73.18631
G1 X147.741 Y143.441 E73.2169
G1 X147.544 Y144.068 E73.2475
G1 X147.272 Y144.666 E73.27809
G1 X146.93 Y145.227 E73.30868
G1 X146.522 Y145.742 E73.33928
G1 X146.055 Y146.204 E73.36987
G1 X145.535 Y146.605 E73.40044
G1 X144.971 Y146.941 E73.43101
G1 X144.369 Y147.205 E73.46162
G1 X143.74 Y147.395 E73.49222
G1 X143.093 Y147.506 E73.52278
G1 X142.5 Y147.539 E73.55044
G1 X92.5 Y147.539 E75.87865
G1 X91.844 Y147.499 E75.90925
G1 X91.198 Y147.38 E75.93984
G1 X90.571 Y147.183 E75.97044
G1 X89.973 Y146.911 E76.00103
G1 X89.412 Y146.569 E76.03163
G1 X88.897 Y146.161 E76.06222
G1 X88.435 Y145.694 E76.09281
G1 X88.034 Y145.174 E76.12338
G1 X87.698 Y144.61 E76.15395
G1 X87.434 Y144.008 E76.18456
G1 X87.244 Y143.379 E76.21516
G1 X87.133 Y142.732 E76.24573
G1 X87.1 Y142.139 E76.27338
G1 X87.1 Y91.947 E78.61053
G1 X87.14 Y91.291 E78.64113
G1 X87.259 Y90.645 E78.67172
G1 X87.456 Y90.018 E78.70232
G1 X87.728 Y89.42 E78.73291
G1 X88.07 Y88.859 E78.76351
G1 X88.478 Y88.344 E78.7941
G1 X88.945 Y87.882 E78.82469
G0 F6000 X88.873 Y88.506
G1 F1200 X89.336 Y88.076 E78.85411
G1 X89.85 Y87.707 E78.88358
G1 X90.406 Y87.407 E78.91299
G1 X90.995 Y87.179 E78.9424
G1 X91.609 Y87.027 E78.97186
G1 X92.5 Y86.947 E79.01351
G1 X142.5 Y86.948 E81.34172
G1 X143.131 Y86.988 E81.37116
G1 X143.752 Y87.107 E81.40061
G1 X144.353 Y87.304 E81.43006
G1 X144.924 Y87.575 E81.45949
G1 X145.456 Y87.915 E81.48889
G1 X145.941 Y88.321 E81.51834
G1 X146.371 Y88.784 E81.54776
G1 X146.74 Y89.298 E81.57722
G1 X147.04 Y89.854 E81.60664
G1 X147.268 Y90.443 E81.63605
G1 X147.42 Y91.057 E81.6655
G1 X147.5 Y91.948 E81.70716
G1 X147.5 Y142.139 E84.04426
G1 X147.46 Y142.77 E84.0737
G1 X147.341 Y143.391 E84.10315
G1 X147.144 Y143.991 E84.13255
G1 X146.873 Y144.563 E84.16203
G1 X146.533 Y145.095 E84.19142
G1 X146.127 Y145.58 E84.22088
G1 X145.664 Y146.01 E84.2503
G1 X145.15 Y146.379 E84.27976
G1 X144.594 Y146.679 E84.30918
G1 X144.005 Y146.907 E84.33859
G1 X143.391 Y147.059 E84.36804
G1 X142.5 Y147.139 E84.4097
G1 X92.5 Y147.139 E86.73791
G1 X91.869 Y147.099 E86.76735
G1 X91.248 Y146.98 E86.79679
G1 X90.648 Y146.783 E86.8262
G1 X90.076 Y146.512 E86.85567
G1 X89.544 Y146.172 E86.88507
G1 X89.059 Y145.766 E86.91452
G1 X88.629 Y145.303 E86.94394
G1 X88.26 Y144.789 E86.97341
G1 X87.96 Y144.233 E87.00282
G1 X87.732 Y143.644 E87.03223
G1 X87.58 Y143.03 E87.06169
G1 X87.5 Y142.139 E87.10334
G1 X87.5 Y91.947 E89.44049
G1 X87.54 Y91.316 E89.46993
G1 X87.659 Y90.695 E89.49938
G1 X87.856 Y90.095 E89.52878
G1 X88.127 Y89.523 E89.55826
G1 X88.467 Y88.991 E89.58765
G1 X88.873 Y88.506 E89.61711
G0 F6000 X89.267 Y88.675
G1 F1200 X89.725 Y88.278 E89.64533
G1 X90.232 Y87.945 E89.67357
G1 X90.778 Y87.681 E89.70181
G1 X91.354 Y87.492 E89.73004
G1 X91.95 Y87.38 E89.75828
G1 X92.5 Y87.347 E89.78394
G1 X142.5 Y87.348 E92.11215
G1 X143.105 Y87.388 E92.14038
G1 X143.7 Y87.507 E92.16863
G1 X144.273 Y87.703 E92.19683
G1 X144.816 Y87.974 E92.22509
G1 X145.319 Y88.313 E92.25334
G1 X145.772 Y88.715 E92.28154
G1 X146.169 Y89.173 E92.30976
G1 X146.502 Y89.68 E92.338
G1 X146.766 Y90.226 E92.36624
G1 X146.955 Y90.802 E92.39447
G1 X147.067 Y91.398 E92.42271
G1 X147.1 Y91.948 E92.44837
G1 X147.1 Y142.139 E94.78547
G1 X147.06 Y142.744 E94.8137
G1 X146.941 Y143.338 E94.84191
G1 X146.745 Y143.912 E94.87016
G1 X146.474 Y144.455 E94.89841
G1 X146.135 Y144.958 E94.92666
G1 X145.733 Y145.411 E94.95486
